svgs/sharp-light/tree-city.svg

<svg xmlns="http://www.w3.org/2000/svg" viewBox="0 0 640 512"><!--! Font Awesome Pro 6.6.0 by @fontawesome - https://fontawesome.com License - https://fontawesome.com/license (Commercial License) Copyright 2024 Fonticons, Inc. --><path d="M288 0l16 0L496 0l16 0 0 16 0 176 32 0 0-80 0-16 32 0 0 16 0 80 48 0 16 0 0 16 0 288 0 16-32 0 0-16 0-272-32 0-32 0-48 0-16 0 0-16 0-176L320 32l0 464 0 16-32 0 0-16 0-480 0-16zm80 64l64 0 16 0 0 16 0 64 0 16-16 0-64 0-16 0 0-16 0-64 0-16 16 0zm16 64l32 0 0-32-32 0 0 32zm96 128l16 0 64 0 16 0 0 16 0 64 0 16-16 0-64 0-16 0 0-16 0-64 0-16zm32 32l0 32 32 0 0-32-32 0zm-16 96l64 0 16 0 0 16 0 64 0 16-16 0-64 0-16 0 0-16 0-64 0-16 16 0zm16 64l32 0 0-32-32 0 0 32zM352 192l16 0 64 0 16 0 0 16 0 64 0 16-16 0-64 0-16 0 0-16 0-64 0-16zm32 64l32 0 0-32-32 0 0 32zm-16 64l64 0 16 0 0 16 0 64 0 16-16 0-64 0-16 0 0-16 0-64 0-16 16 0zm16 64l32 0 0-32-32 0 0 32zM188.1 189.5l3.1-19.4c.5-3.3 .8-6.7 .8-10.1c0-35.3-28.7-64-64-64s-64 28.7-64 64c0 3.5 .3 6.8 .8 10.1l3.1 19.4L51.9 201.1C39.8 209.8 32 224 32 240l0 48 80 0 0-48 0-16 32 0 0 16 0 48 80 0 0-48c0-16-7.8-30.2-19.9-38.9l-15.9-11.5zM256 288l0 32-32 0-80 0 0 176 0 16-32 0 0-16 0-176-80 0L0 320l0-32 0-48c0-26.7 13.1-50.3 33.2-64.9c-.8-4.9-1.2-10-1.2-15.1c0-53 43-96 96-96s96 43 96 96c0 5.1-.4 10.2-1.2 15.1C242.9 189.7 256 213.3 256 240l0 48z"/></svg>

<svg xmlns="http://www.w3.org/2000/svg" viewBox="0 0 640 512"><!--! Font Awesome Pro 6.4.0 by @fontawesome - https://fontawesome.com License - https://fontawesome.com/license (Commercial License) Copyright 2023 Fonticons, Inc. --><path d="M288 0h16H496h16V16 192h32V112 96h32v16 80h48 16v16V496v16H608V496 224H576 544 496 480V208 32H320V496v16H288V496 16 0zm80 64h64 16V80v64 16H432 368 352V144 80 64h16zm16 64h32V96H384v32zm96 128h16 64 16v16 64 16H560 496 480V336 272 256zm32 32v32h32V288H512zm-16 96h64 16v16 64 16H560 496 480V464 400 384h16zm16 64h32V416H512v32zM352 192h16 64 16v16 64 16H432 368 352V272 208 192zm32 64h32V224H384v32zm-16 64h64 16v16 64 16H432 368 352V400 336 320h16zm16 64h32V352H384v32zM188.1 189.5l3.1-19.4c.5-3.3 .8-6.7 .8-10.1c0-35.3-28.7-64-64-64s-64 28.7-64 64c0 3.5 .3 6.8 .8 10.1l3.1 19.4L51.9 201.1C39.8 209.8 32 224 32 240v48h80V240 224h32v16 48h80V240c0-16-7.8-30.2-19.9-38.9l-15.9-11.5zM256 288v32H224 144V496v16H112V496 320H32 0V288 240c0-26.7 13.1-50.3 33.2-64.9c-.8-4.9-1.2-10-1.2-15.1c0-53 43-96 96-96s96 43 96 96c0 5.1-.4 10.2-1.2 15.1C242.9 189.7 256 213.3 256 240v48z"/></svg>
